X:203
T: WER DIESEN RING NICHT FINDEN KANN
N: K2603A
O: Europa, Mitteleuropa, Deutschland, Nassau
R: Kinder - Lied, Pfaender - Spiel
M: 2/4
L: 1/8
K: G
D | dddd | dBG
B | AcFA | GBd
B | AcFA | G2z
G | AABB | ccB
B | AABB | c2B2 | A2z
D | dddd | dBG
B | ABcF | AGG2

